X: 38534
T: Stephen's
R: waltz
M: 3/4
K: Fmajor
F3 C FA|G2 GA AG|F2 FA GF|DF F2 (3CDE|
F3 C FA|G3 G GF|GA cf (3dcA|c2 c2 (3cde|
f2 fe dc|cf A2 (3GAB|c2 cA GF|DF FD DC|
DF Bc dc|cf A2 GF|GA cA GF|1 F4 FC:|2 F3 G Ac||
|:d3 f (3dcA|c2 cA cd|e3 e de|f2 fa gf|
fd dc df|dc A2 GF|GA cf (3dcA|c4 (3cde|
f2 fe dc|cf A2 (3GAB|c2 FA GF|DF FD DC|
DF Bc dc|cf A2 GF|GA cA GF|1 F3 F Ac:|2 F6||

